X:837
T:Firth o' Forth
S:Adapted from Kerr's Merry Melodies Bk.3
Z:Nigel Gatherer
M:4/4
L:1/8
K:D
ABde fedA | Beef gf e2 | ABde fedA | BdAG FD D2 :|
afde fedA | Beef gf e2 | afde fedA | BdAG FD D2 :|
<end>
<start>
